src/standard/blank-space.svg

<svg xmlns="http://www.w3.org/2000/svg" viewBox="0 0 36 36">
  <path d="M31.42 30.18a.75.75 0 0 0-.57 1.38.75.75 0 0 0 .57-1.38Zm-23.69.17a.75.75 0 0 0 0 1.5.75.75 0 0 0 0-1.5Zm13-.13a.75.75 0 0 0 0 1.5.75.75 0 0 0 0-1.5Zm2.6-.02a.75.75 0 0 0 0 1.5.75.75 0 0 0 0-1.5Zm-10.4.1a.75.75 0 0 0 0 1.5.75.75 0 0 0 0-1.5Zm5.2-.05a.75.75 0 0 0 0 1.5.75.75 0 0 0 0-1.5Zm-2.6.02a.75.75 0 0 0 0 1.5.75.75 0 0 0 0-1.5Zm-5.2.06a.75.75 0 0 0 0 1.5.75.75 0 0 0 0-1.5Zm18.2-.18a.75.75 0 0 0 0 1.5.75.75 0 0 0 0-1.5Zm-2.6.02a.75.75 0 0 0 0 1.5.75.75 0 0 0 0-1.5Zm-20.27.42a.75.75 0 0 0-1 1.07.75.75 0 0 0 1-1.07ZM5 17.38a.75.75 0 0 0 0 1.5.75.75 0 0 0 0-1.5ZM5 20a.75.75 0 0 0 0 1.5.75.75 0 0 0 0-1.5Zm.05 2.58a.75.75 0 0 0 0 1.5.75.75 0 0 0 0-1.5Zm.03 2.6a.75.75 0 0 0 0 1.5.75.75 0 0 0 0-1.5Zm-.16-15.6a.75.75 0 0 0 0 1.5.75.75 0 0 0 0-1.5Zm.18 18.2a.75.75 0 0 0 0 1.5.75.75 0 0 0 0-1.5ZM5 12.18a.75.75 0 0 0 0 1.5.75.75 0 0 0 0-1.5ZM4.9 7a.75.75 0 0 0 0 1.5.75.75 0 0 0 0-1.5Zm.1 7.78a.75.75 0 0 0 0 1.5.75.75 0 0 0 0-1.5ZM4.34 4.6a.75.75 0 0 0 1.07 1.05C6.1 5 5 3.93 4.34 4.6Zm5.73-.27a.75.75 0 0 0 0 1.5.75.75 0 0 0 0-1.5Zm-2.6.02a.75.75 0 0 0 0 1.5.75.75 0 0 0 0-1.5Zm18.2-.18a.75.75 0 0 0 0 1.5.75.75 0 0 0 0-1.5Zm-5.2.05a.75.75 0 0 0 0 1.5.75.75 0 0 0 0-1.5Zm2.6-.02a.75.75 0 0 0 0 1.5.75.75 0 0 0 0-1.5Zm-10.4.1a.75.75 0 0 0 0 1.5.75.75 0 0 0 0-1.5Zm15.6-.15a.75.75 0 0 0 0 1.5.75.75 0 0 0 0-1.5Zm-10.4.1a.75.75 0 0 0 0 1.5.75.75 0 0 0 0-1.5Zm-2.6.03a.75.75 0 0 0 0 1.5.75.75 0 0 0 0-1.5Zm15.32 1.29a.75.75 0 0 0 .57-1.39.75.75 0 0 0-.57 1.39ZM31 17.12a.75.75 0 0 0 0 1.5.75.75 0 0 0 0-1.5Zm0 2.6a.75.75 0 0 0 0 1.5.75.75 0 0 0 0-1.5Zm0-5.2A.75.75 0 0 0 31 16a.75.75 0 0 0 0-1.48Zm0-2.6a.75.75 0 0 0 0 1.5.75.75 0 0 0 0-1.5Zm-.1-5.2a.75.75 0 0 0 0 1.5.75.75 0 0 0 0-1.5Zm.15 15.6a.75.75 0 0 0 0 1.5.75.75 0 0 0 0-1.5Zm-.13-13a.75.75 0 0 0 0 1.5.75.75 0 0 0 0-1.5Zm.18 18.2a.75.75 0 0 0 0 1.5.75.75 0 0 0 0-1.5Zm-.02-2.6a.75.75 0 0 0 0 1.5.75.75 0 0 0 0-1.5Z" fill="#231f20"/>
</svg>

<svg xmlns="http://www.w3.org/2000/svg" viewBox="0 0 36 36"><title>Blank Space icon - Black</title>
<desc>empty, fill, form, block, schedule, shapes and signage</desc>
<metadata><?xpacket begin="﻿" id="W5M0MpCehiHzreSzNTczkc9d"?>
<x:xmpmeta xmlns:x="adobe:ns:meta/" x:xmptk="Adobe XMP Core 8.0-c001 1.000000, 0000/00/00-00:00:00        ">
   <rdf:RDF xmlns:rdf="http://www.w3.org/1999/02/22-rdf-syntax-ns#">
      <rdf:Description rdf:about=""
            xmlns:xmp="http://ns.adobe.com/xap/1.0/"
            xmlns:dc="http://purl.org/dc/elements/1.1/"
            xmlns:cq="http://www.day.com/jcr/cq/1.0"
            xmlns:tiff="http://ns.adobe.com/tiff/1.0/">
         <xmp:rhcc-effective-on>2023-12-08T17:37:45.048Z</xmp:rhcc-effective-on>
         <xmp:rhcc-metadata-complete-moderator>pending</xmp:rhcc-metadata-complete-moderator>
         <xmp:rhcc-translation-id>TRAeb4cdd86-30d8-4a2d-be95-5cdba865510e</xmp:rhcc-translation-id>
         <xmp:brand-content-type>Icon</xmp:brand-content-type>
         <xmp:CreateDate>2023-12-08T17:37:45.048Z</xmp:CreateDate>
         <xmp:rhcc-effective-on-set-on-upload>true</xmp:rhcc-effective-on-set-on-upload>
         <xmp:rhcc-metadata-complete-uploader>pending</xmp:rhcc-metadata-complete-uploader>
         <xmp:rhcc-file-last-modified>2023-12-08T17:40:52.819Z</xmp:rhcc-file-last-modified>
         <xmp:rhcc-audience>rhcc-audience:internal</xmp:rhcc-audience>
         <xmp:rhcc-rights-restricted>no</xmp:rhcc-rights-restricted>
         <xmp:brand-content-subtype>Icon</xmp:brand-content-subtype>
         <xmp:rhcc-derivative-id>DEReb4cdd86-30d8-4a2d-be95-5cdba865510e</xmp:rhcc-derivative-id>
         <xmp:brand-logo-color>Black</xmp:brand-logo-color>
         <xmp:rhcc-notify-portal-subscribers-on-change>yes</xmp:rhcc-notify-portal-subscribers-on-change>
         <dc:format>image/svg+xml</dc:format>
         <dc:modified>2024-02-09T20:27:24.270Z</dc:modified>
         <dc:title>
            <rdf:Alt>
               <rdf:li xml:lang="x-default">Blank Space icon - Black</rdf:li>
            </rdf:Alt>
         </dc:title>
         <dc:description>
            <rdf:Alt>
               <rdf:li xml:lang="x-default">empty, fill, form, block, schedule, shapes and signage</rdf:li>
            </rdf:Alt>
         </dc:description>
         <cq:lastReplicationAction_scene7>Activate</cq:lastReplicationAction_scene7>
         <cq:lastReplicationAction_publish>Activate</cq:lastReplicationAction_publish>
         <cq:lastReplicated_publish>2024-02-09T22:13:51.026Z</cq:lastReplicated_publish>
         <cq:lastReplicatedBy>workflow-process-service</cq:lastReplicatedBy>
         <cq:lastReplicationAction>Activate</cq:lastReplicationAction>
         <cq:lastReplicatedBy_publish>workflow-process-service</cq:lastReplicatedBy_publish>
         <cq:isDelivered>true</cq:isDelivered>
         <cq:lastReplicated>2024-02-09T22:13:51.026Z</cq:lastReplicated>
         <cq:lastReplicatedBy_scene7>workflow-process-service</cq:lastReplicatedBy_scene7>
         <cq:lastReplicated_scene7>2024-02-09T22:13:51.026Z</cq:lastReplicated_scene7>
         <tiff:ImageLength>36</tiff:ImageLength>
         <tiff:ImageWidth>36</tiff:ImageWidth>
      </rdf:Description>
   </rdf:RDF>
</x:xmpmeta>
                                                                                                    
                                                                                                    
                                                                                                    
                                                                                                    
                                                                                                    
                                                                                                    
                                                                                                    
                                                                                                    
                                                                                                    
                                                                                                    
                                 
<?xpacket end="w"?></metadata>
<defs><style>.cls-1{fill:#231f20;}</style></defs><g id="Layer_4" data-name="Layer 4"><path class="cls-1" d="M31.42,30.18a.75.75,0,0,0-.57,1.38A.75.75,0,0,0,31.42,30.18Z"/><path class="cls-1" d="M7.73,30.35a.75.75,0,0,0,0,1.5A.75.75,0,0,0,7.73,30.35Z"/><path class="cls-1" d="M20.73,30.22a.75.75,0,0,0,0,1.5A.75.75,0,0,0,20.73,30.22Z"/><path class="cls-1" d="M23.33,30.2a.75.75,0,0,0,0,1.5A.75.75,0,0,0,23.33,30.2Z"/><path class="cls-1" d="M12.93,30.3a.75.75,0,0,0,0,1.5A.75.75,0,0,0,12.93,30.3Z"/><path class="cls-1" d="M18.13,30.25a.75.75,0,0,0,0,1.5A.75.75,0,0,0,18.13,30.25Z"/><path class="cls-1" d="M15.53,30.27a.75.75,0,0,0,0,1.5A.75.75,0,0,0,15.53,30.27Z"/><path class="cls-1" d="M10.33,30.33a.75.75,0,0,0,0,1.5A.75.75,0,0,0,10.33,30.33Z"/><path class="cls-1" d="M28.53,30.15a.75.75,0,0,0,0,1.5A.75.75,0,0,0,28.53,30.15Z"/><path class="cls-1" d="M25.93,30.17a.75.75,0,0,0,0,1.5A.75.75,0,0,0,25.93,30.17Z"/><path class="cls-1" d="M5.66,30.59a.75.75,0,0,0-1,1.07A.75.75,0,0,0,5.66,30.59Z"/><path class="cls-1" d="M5,17.38a.75.75,0,0,0,0,1.5A.75.75,0,0,0,5,17.38Z"/><path class="cls-1" d="M5,20a.75.75,0,0,0,0,1.5A.75.75,0,0,0,5,20Z"/><path class="cls-1" d="M5.05,22.58a.75.75,0,0,0,0,1.5A.75.75,0,0,0,5.05,22.58Z"/><path class="cls-1" d="M5.08,25.18a.75.75,0,0,0,0,1.5A.75.75,0,0,0,5.08,25.18Z"/><path class="cls-1" d="M4.92,9.58a.75.75,0,0,0,0,1.5A.75.75,0,0,0,4.92,9.58Z"/><path class="cls-1" d="M5.1,27.78a.75.75,0,0,0,0,1.5A.75.75,0,0,0,5.1,27.78Z"/><path class="cls-1" d="M5,12.18a.75.75,0,0,0,0,1.5A.75.75,0,0,0,5,12.18Z"/><path class="cls-1" d="M4.9,7a.75.75,0,0,0,0,1.5A.75.75,0,0,0,4.9,7Z"/><path class="cls-1" d="M5,14.78a.75.75,0,0,0,0,1.5A.75.75,0,0,0,5,14.78Z"/><path class="cls-1" d="M4.34,4.6A.75.75,0,0,0,5.41,5.65C6.1,5,5,3.93,4.34,4.6Z"/><path class="cls-1" d="M10.07,4.33a.75.75,0,0,0,0,1.5A.75.75,0,0,0,10.07,4.33Z"/><path class="cls-1" d="M7.47,4.35a.75.75,0,0,0,0,1.5A.75.75,0,0,0,7.47,4.35Z"/><path class="cls-1" d="M25.67,4.17a.75.75,0,0,0,0,1.5A.75.75,0,0,0,25.67,4.17Z"/><path class="cls-1" d="M20.47,4.22a.75.75,0,0,0,0,1.5A.75.75,0,0,0,20.47,4.22Z"/><path class="cls-1" d="M23.07,4.2a.75.75,0,0,0,0,1.5A.75.75,0,0,0,23.07,4.2Z"/><path class="cls-1" d="M12.67,4.3a.75.75,0,0,0,0,1.5A.75.75,0,0,0,12.67,4.3Z"/><path class="cls-1" d="M28.27,4.15a.75.75,0,0,0,0,1.5A.75.75,0,0,0,28.27,4.15Z"/><path class="cls-1" d="M17.87,4.25a.75.75,0,0,0,0,1.5A.75.75,0,0,0,17.87,4.25Z"/><path class="cls-1" d="M15.27,4.28a.75.75,0,0,0,0,1.5A.75.75,0,0,0,15.27,4.28Z"/><path class="cls-1" d="M30.59,5.57a.75.75,0,0,0,.57-1.39A.75.75,0,0,0,30.59,5.57Z"/><path class="cls-1" d="M31,17.12a.75.75,0,0,0,0,1.5A.75.75,0,0,0,31,17.12Z"/><path class="cls-1" d="M31,19.72a.75.75,0,0,0,0,1.5A.75.75,0,0,0,31,19.72Z"/><path class="cls-1" d="M31,14.52A.75.75,0,0,0,31,16,.75.75,0,0,0,31,14.52Z"/><path class="cls-1" d="M31,11.92a.75.75,0,0,0,0,1.5A.75.75,0,0,0,31,11.92Z"/><path class="cls-1" d="M30.9,6.72a.75.75,0,0,0,0,1.5A.75.75,0,0,0,30.9,6.72Z"/><path class="cls-1" d="M31.05,22.32a.75.75,0,0,0,0,1.5A.75.75,0,0,0,31.05,22.32Z"/><path class="cls-1" d="M30.92,9.32a.75.75,0,0,0,0,1.5A.75.75,0,0,0,30.92,9.32Z"/><path class="cls-1" d="M31.1,27.52a.75.75,0,0,0,0,1.5A.75.75,0,0,0,31.1,27.52Z"/><path class="cls-1" d="M31.08,24.92a.75.75,0,0,0,0,1.5A.75.75,0,0,0,31.08,24.92Z"/></g></svg>
